assets/icons/screensaver.svg

<?xml version="1.0" encoding="UTF-8" standalone="no"?>
<svg viewBox="0 0 24 24" version="1.1" id="svg8" sodipodi:docname="screensaver.svg" inkscape:version="1.1 (ce6663b3b7, 2021-05-25)" width="24" height="24"
   xmlns:inkscape="http://www.inkscape.org/namespaces/inkscape"
   xmlns:sodipodi="http://sodipodi.sourceforge.net/DTD/sodipodi-0.dtd"
   xmlns="http://www.w3.org/2000/svg"
   xmlns:svg="http://www.w3.org/2000/svg"
   xmlns:rdf="http://www.w3.org/1999/02/22-rdf-syntax-ns#"
   xmlns:cc="http://creativecommons.org/ns#"
   xmlns:dc="http://purl.org/dc/elements/1.1/">
   <metadata id="metadata14">
      <rdf:RDF>
         <cc:Work rdf:about="">
            <dc:format>image/svg+xml</dc:format>
            <dc:type rdf:resource="http://purl.org/dc/dcmitype/StillImage" />
         </cc:Work>
      </rdf:RDF>
   </metadata>
   <defs id="defs12" />
   <sodipodi:namedview pagecolor="#ffffff" bordercolor="#666666" borderopacity="1" objecttolerance="10" gridtolerance="10" guidetolerance="10" inkscape:pageopacity="0" inkscape:pageshadow="2" inkscape:window-width="1920" inkscape:window-height="1016" id="namedview10" showgrid="true" inkscape:snap-center="true" inkscape:zoom="38.890873" inkscape:cx="10.272333" inkscape:cy="13.10076" inkscape:window-x="0" inkscape:window-y="27" inkscape:window-maximized="1" inkscape:current-layer="svg8" inkscape:pagecheckerboard="0">
      <inkscape:grid type="xygrid" id="grid848" />
      <inkscape:grid type="xygrid" id="grid1766" dotted="true" spacingx="0.5" spacingy="0.5" empspacing="10" />
   </sodipodi:namedview>
   <path id="path3037" style="color:#000000;fill:#808080;fill-opacity:1;-inkscape-stroke:none" d="M 5.4550781 3 C 4.4864972 3.0089807 3.7372591 3.0732694 3.1171875 3.4453125 C 2.7038064 3.6933412 2.3972496 4.10122 2.2285156 4.6074219 C 2.0597817 5.1136238 2 5.722223 2 6.5 L 2 14.5 C 2 15.277777 2.059782 15.886376 2.2285156 16.392578 C 2.3972496 16.89878 2.7038064 17.306659 3.1171875 17.554688 C 3.7372591 17.926731 4.4864972 17.991019 5.4550781 18 C 5.7802131 18.003289 6.1213187 18.001953 6.5 18.001953 L 9 18.001953 L 9 19.126953 C 9 21.001953 8.375 21.001953 7.125 21.001953 L 6 21.001953 L 6 22.001953 L 18 22.001953 L 18 21.001953 L 16.875 21.001953 C 15.625001 21.001953 15 21.001953 15 19.126953 L 15 18.001953 L 17.5 18.001953 C 17.878681 18.001953 18.219787 18.00329 18.544922 18 C 19.513503 17.991018 20.262741 17.926727 20.882812 17.554688 C 21.296194 17.306659 21.60275 16.89878 21.771484 16.392578 C 21.940218 15.886376 22 15.277777 22 14.5 L 22 6.5 C 22 5.722223 21.94022 5.1136238 21.771484 4.6074219 C 21.60275 4.10122 21.296194 3.6933412 20.882812 3.4453125 C 20.056051 2.9492552 18.999998 3 17.5 3 L 6.5 3 C 6.1250004 3 5.7779384 2.9970064 5.4550781 3 z M 6.5 4 L 17.5 4 C 18.999998 4 19.943951 4.050746 20.367188 4.3046875 C 20.578806 4.4316585 20.70975 4.5862809 20.822266 4.9238281 C 20.934781 5.2613754 21 5.7777785 21 6.5 L 21 14.5 C 21 15.222222 20.93478 15.738625 20.822266 16.076172 C 20.70975 16.413719 20.578807 16.568342 20.367188 16.695312 C 19.943952 16.949254 18.999999 17 17.5 17 L 6.5 17 C 5.0000015 17 4.056049 16.94925 3.6328125 16.695312 C 3.4211942 16.568342 3.2902501 16.413719 3.1777344 16.076172 C 3.0652186 15.738625 3 15.222222 3 14.5 L 3 6.5 C 3 5.7777785 3.065219 5.2613754 3.1777344 4.9238281 C 3.2902501 4.5862809 3.4211942 4.4316585 3.6328125 4.3046875 C 4.056049 4.0507456 5.0000015 4 6.5 4 z " />
   <path style="font-variant-ligatures:normal;font-variant-position:normal;font-variant-caps:normal;font-variant-numeric:normal;font-variant-alternates:normal;font-feature-settings:normal;text-indent:0;text-decoration-line:none;text-decoration-style:solid;text-decoration-color:#000000;text-transform:none;text-orientation:mixed;shape-padding:0;isolation:auto;mix-blend-mode:normal;fill:#808080;stroke-width:1" d="m 14.082515,7 c 0.465,0.562499 0.744629,1.2828138 0.744629,2.0703125 a 3.2579945,3.2579945 0 0 1 -3.256836,3.2568365 c -0.787498,0 -1.507813,-0.28038 -2.0703123,-0.744629 a 3.7912436,3.7912436 0 0 0 3.6987303,2.91748 3.8009936,3.8009936 0 0 0 3.80127,-3.801269 3.7912436,3.7912436 0 0 0 -2.917481,-3.698731 z" id="path1095" />
   <path style="font-variant-ligatures:normal;font-variant-position:normal;font-variant-caps:normal;font-variant-numeric:normal;font-variant-alternates:normal;font-feature-settings:normal;text-indent:0;text-decoration-line:none;text-decoration-style:solid;text-decoration-color:#000000;text-transform:none;text-orientation:mixed;shape-padding:0;isolation:auto;mix-blend-mode:normal;fill:#808080;stroke-width:1" d="m 6.4824176,6.4824219 0.8886719,1.7675781 -0.8886719,1.767578 1.7675781,-0.8886718 1.7675783,0.8886718 -0.888672,-1.767578 0.888672,-1.7675781 -1.7675783,0.8886718 z" id="path1093" />
</svg>

<svg width="24" height="24" xmlns="http://www.w3.org/2000/svg"><path style="color:#000;fill:gray;fill-opacity:1;-inkscape-stroke:none" d="M5.455 3c-.969.009-1.718.073-2.338.445-.413.248-.72.656-.888 1.162C2.059 5.114 2 5.722 2 6.5v8c0 .778.06 1.386.229 1.893.168.506.475.914.888 1.162.62.372 1.37.436 2.338.445.325.003.666.002 1.045.002H9v1.125c0 1.875-.625 1.875-1.875 1.875H6v1h12v-1h-1.125c-1.25 0-1.875 0-1.875-1.875v-1.125h2.5c.379 0 .72.001 1.045-.002.969-.009 1.718-.073 2.338-.445.413-.248.72-.656.888-1.162.17-.507.229-1.115.229-1.893v-8c0-.778-.06-1.386-.229-1.893-.168-.506-.475-.914-.888-1.162C20.056 2.95 19 3 17.5 3h-11c-.375 0-.722-.003-1.045 0zM6.5 4h11c1.5 0 2.444.05 2.867.305.212.127.343.281.455.619.113.337.178.854.178 1.576v8c0 .722-.065 1.239-.178 1.576-.112.338-.243.492-.455.62C19.944 16.948 19 17 17.5 17h-11c-1.5 0-2.444-.05-2.867-.305-.212-.127-.343-.281-.455-.619C3.065 15.74 3 15.222 3 14.5v-8c0-.722.065-1.239.178-1.576.112-.338.243-.492.455-.62C4.056 4.052 5 4 6.5 4z"/><path style="font-variant-ligatures:normal;font-variant-position:normal;font-variant-caps:normal;font-variant-numeric:normal;font-variant-alternates:normal;font-feature-settings:normal;text-indent:0;text-decoration-line:none;text-decoration-style:solid;text-decoration-color:#000;text-transform:none;text-orientation:mixed;shape-padding:0;isolation:auto;mix-blend-mode:normal;fill:gray;stroke-width:1" d="M14.083 7c.465.562.744 1.283.744 2.07a3.258 3.258 0 0 1-3.257 3.257 3.24 3.24 0 0 1-2.07-.744 3.791 3.791 0 0 0 3.699 2.917A3.801 3.801 0 0 0 17 10.699 3.791 3.791 0 0 0 14.083 7zm-7.601-.518.89 1.768-.89 1.768 1.768-.89 1.768.89-.89-1.768.89-1.768-1.768.89z"/></svg>
